!!!OTL: DIE SONNE BLICKT MIT HELLEM SCHEIN
!!!ARE: Europa, Mitteleuropa, Deutschland
!!!SCT: F0358
!!!YEM: Copyright 1995, estate of Helmut Schaffrath.
**kern
*ICvox
*Ivox
*M4/4
*k[]
*C:
{4G
=1
4A
4G
4c
4G
=2
4.e
8d
4c}
{4G
=3
4.f
8e
8.d
16c
8.B
16c
=4
2d}
{2e
=5
4.d
8B
8.A
16B
8.c
16d
=6
2B
4r}
{4G
=7
4.d
8c
4B
4D
=8
4.F
8E
4D}
{4G
=9
4.e
8d
4c
4E
=10
4.G
8F
4E}
{4G
=11
2c
4d
4e
=12
2A}
{4f
4d
=13
2c
4B
4B
=14
2c
4r}
==
!!!AGN: Jugend - Lied, Belehrung, Optimismus
!!!ONB: ESAC (Essen Associative Code) Database: FINK
!!!AMT: simple quadruple
!!!AIN: vox
!!!EED: Helmut Schaffrath
!!!EEV: 1.0
*-
